X:0969
T:Lay by your wheel Betty.
M:3/4
L:1/8
Q:1/4=100
I: ||
Z:Jack Campin * www.campin.me.uk * 2009
K:G
D2|B3  A G2 |c2 B2 A2      | d2  G2(A2{Bc})|{c}B4
c2|d2 e2 B2 |c4    dA      | B2  dB`AG     |{G}F4
A2|d2 fe`d^c|d2 A2 B(^c/d/)|(AF)(FD)E2     |   D4
A2|d2 cB`A^G|A2 c2 e2      | c2  BA`GF     |   GABc
d2|D2 E2 F2 |A2 B2 c2      | B2  dB`AG     |   A2 GFED|
   GF`GA`Bc |d2 g2 c2      | Bd  G2 A2     |   Bc d2 |]

